X: 23620
T: Lilting Fisherman, The
R: jig
M: 6/8
K: Dmajor
B/c/|dBG GBd|gfg ege|dBG GFG|AFD DFA|
dBG GBd|gfg ege|dBG FGA|BGG G2:|
F/G/|ABA AFA|fgf f2e|dfe dcB|AFF F2G|
ABA AFA|BcB Bcd|cec ABc|1 dfe dcB:|2 dfe d2||

